contributed-vectors/my_therapy.svg

<svg xmlns="http://www.w3.org/2000/svg" xml:space="preserve" style="fill-rule:evenodd;clip-rule:evenodd;stroke-linejoin:round;stroke-miterlimit:2" viewBox="0 0 192 192"><circle cx="88" cy="88" r="88" style="fill:#96dfd3" transform="translate(8 8)"/><path d="M119.382 72.886c0-12.803-10.395-23.198-23.198-23.198S72.986 60.083 72.986 72.886v49.358c0 12.803 10.395 23.198 23.198 23.198s23.198-10.395 23.198-23.198V72.886Z" style="fill:#fff" transform="matrix(.69672 0 0 .69672 28.987 35.929)"/><path d="M82.089 97.565a2.87 2.87 0 0 1-2.87-2.87V72.886c0-9.262 7.519-16.781 16.781-16.781 9.262 0 16.781 7.519 16.781 16.781v21.809a2.87 2.87 0 0 1-2.87 2.87H82.089Z" style="fill:#96dfd3" transform="matrix(.69672 0 0 .69672 29.115 35.929)"/><path d="M62.324 75.972c0-1.849-1.876-3.351-4.186-3.351H44.635c-2.311 0-4.187 1.502-4.187 3.351 0 1.85 1.876 3.351 4.187 3.351h13.503c2.31 0 4.186-1.501 4.186-3.351Z" style="fill:#fff" transform="matrix(.55763 0 0 .69672 36.16 35.979)"/><path d="M62.324 75.972c0-1.849-1.876-3.351-4.186-3.351H44.635c-2.311 0-4.187 1.502-4.187 3.351 0 1.85 1.876 3.351 4.187 3.351h13.503c2.31 0 4.186-1.501 4.186-3.351Z" style="fill:#fff" transform="matrix(.45113 .32776 -.40952 .56366 78.701 10.915)"/><path d="M62.324 75.972c0-1.849-1.876-3.351-4.186-3.351H44.635c-2.311 0-4.187 1.502-4.187 3.351 0 1.85 1.876 3.351 4.187 3.351h13.503c2.31 0 4.186-1.501 4.186-3.351Z" style="fill:#fff" transform="matrix(.17232 .53033 -.66262 .2153 127.85 15.643)"/><path d="M62.324 75.972c0-1.849-1.876-3.351-4.186-3.351H44.635c-2.311 0-4.187 1.502-4.187 3.351 0 1.85 1.876 3.351 4.187 3.351h13.503c2.31 0 4.186-1.501 4.186-3.351Z" style="fill:#fff" transform="matrix(-.17232 .53033 -.66262 -.2153 164.832 48.356)"/><path d="M62.324 75.972c0-1.849-1.876-3.351-4.186-3.351H44.635c-2.311 0-4.187 1.502-4.187 3.351 0 1.85 1.876 3.351 4.187 3.351h13.503c2.31 0 4.186-1.501 4.186-3.351Z" style="fill:#fff" transform="matrix(-.45113 .32776 -.40952 -.56366 175.524 96.56)"/><path d="M62.324 75.972c0-1.849-1.876-3.351-4.186-3.351H44.635c-2.311 0-4.187 1.502-4.187 3.351 0 1.85 1.876 3.351 4.187 3.351h13.503c2.31 0 4.186-1.501 4.186-3.351Z" style="fill:#fff" transform="matrix(-.55763 0 0 -.69672 155.84 141.842)"/></svg>

<?xml version="1.0" encoding="UTF-8" standalone="no"?>
<!DOCTYPE svg PUBLIC "-//W3C//DTD SVG 1.1//EN" "http://www.w3.org/Graphics/SVG/1.1/DTD/svg11.dtd">
<svg width="100%" height="100%" viewBox="0 0 192 192" version="1.1" xmlns="http://www.w3.org/2000/svg" xmlns:xlink="http://www.w3.org/1999/xlink" xml:space="preserve" xmlns:serif="http://www.serif.com/" style="fill-rule:evenodd;clip-rule:evenodd;stroke-linejoin:round;stroke-miterlimit:2;">
    <g id="Layer1">
        <g transform="matrix(1,0,0,1,8,8)">
            <circle cx="88" cy="88" r="88" style="fill:rgb(150,223,211);"/>
        </g>
        <g transform="matrix(0.696719,0,0,0.696719,29.115,35.9286)">
            <g transform="matrix(1,0,0,1,-0.18417,0)">
                <path d="M119.382,72.886C119.382,60.083 108.987,49.688 96.184,49.688C83.381,49.688 72.986,60.083 72.986,72.886L72.986,122.244C72.986,135.047 83.381,145.442 96.184,145.442C108.987,145.442 119.382,135.047 119.382,122.244L119.382,72.886Z" style="fill:white;"/>
            </g>
            <path d="M82.089,97.565C80.504,97.565 79.219,96.28 79.219,94.695C79.219,88.189 79.219,72.886 79.219,72.886C79.219,63.624 86.738,56.105 96,56.105C105.262,56.105 112.781,63.624 112.781,72.886L112.781,94.695C112.781,96.28 111.496,97.565 109.911,97.565C103.57,97.565 88.43,97.565 82.089,97.565Z" style="fill:rgb(150,223,211);"/>
            <g>
                <g transform="matrix(0.80036,0,0,1,10.1126,0.0723586)">
                    <path d="M62.324,75.972C62.324,74.123 60.448,72.621 58.138,72.621C58.138,72.621 44.635,72.621 44.635,72.621C42.324,72.621 40.448,74.123 40.448,75.972C40.448,77.822 42.324,79.323 44.635,79.323C44.635,79.323 58.138,79.323 58.138,79.323C60.448,79.323 62.324,77.822 62.324,75.972Z" style="fill:white;"/>
                </g>
                <g transform="matrix(0.647505,0.47044,-0.587785,0.809017,71.1709,-35.9016)">
                    <path d="M62.324,75.972C62.324,74.123 60.448,72.621 58.138,72.621L44.635,72.621C42.324,72.621 40.448,74.123 40.448,75.972C40.448,77.822 42.324,79.323 44.635,79.323L58.138,79.323C60.448,79.323 62.324,77.822 62.324,75.972Z" style="fill:white;"/>
                </g>
                <g transform="matrix(0.247325,0.761188,-0.951057,0.309017,141.713,-29.116)">
                    <path d="M62.324,75.972C62.324,74.123 60.448,72.621 58.138,72.621L44.635,72.621C42.324,72.621 40.448,74.123 40.448,75.972C40.448,77.822 42.324,79.323 44.635,79.323L58.138,79.323C60.448,79.323 62.324,77.822 62.324,75.972Z" style="fill:white;"/>
                </g>
                <g transform="matrix(-0.247325,0.761188,-0.951057,-0.309017,194.794,17.8374)">
                    <path d="M62.324,75.972C62.324,74.123 60.448,72.621 58.138,72.621C58.138,72.621 44.635,72.621 44.635,72.621C42.324,72.621 40.448,74.123 40.448,75.972C40.448,77.822 42.324,79.323 44.635,79.323C44.635,79.323 58.138,79.323 58.138,79.323C60.448,79.323 62.324,77.822 62.324,75.972Z" style="fill:white;"/>
                </g>
                <g transform="matrix(-0.647505,0.47044,-0.587785,-0.809017,210.14,87.0239)">
                    <path d="M62.324,75.972C62.324,74.123 60.448,72.621 58.138,72.621C58.138,72.621 44.635,72.621 44.635,72.621C42.324,72.621 40.448,74.123 40.448,75.972C40.448,77.822 42.324,79.323 44.635,79.323C44.635,79.323 58.138,79.323 58.138,79.323C60.448,79.323 62.324,77.822 62.324,75.972Z" style="fill:white;"/>
                </g>
                <g transform="matrix(-0.80036,5.55112e-17,0,-1,181.887,152.017)">
                    <path d="M62.324,75.972C62.324,74.123 60.448,72.621 58.138,72.621C58.138,72.621 44.635,72.621 44.635,72.621C42.324,72.621 40.448,74.123 40.448,75.972C40.448,77.822 42.324,79.323 44.635,79.323C44.635,79.323 58.138,79.323 58.138,79.323C60.448,79.323 62.324,77.822 62.324,75.972Z" style="fill:white;"/>
                </g>
            </g>
        </g>
    </g>
</svg>
